svg/blobs-icons/no-decorations/baseball.svg

<svg xmlns="http://www.w3.org/2000/svg" xmlns:xlink="http://www.w3.org/1999/xlink" preserveAspectRatio="xMidYMid" width="216" height="216" viewBox="0 0 216 216"><defs><style>.cls-3{fill:#ededed}.cls-4{fill:#fbb713}.cls-5{fill:#000;opacity:.35}.cls-8{fill:#000;opacity:.25}</style></defs><g id="group-132svg"><path d="M31.559 31.566c-42.085 42.083-42.085 110.324.0 152.407 42.085 42.085 110.327 42.085 152.412.0 42.085-42.083 42.085-110.324.0-152.407-42.085-42.083-110.327-42.083-152.412.0z" id="path-1" class="cls-3" fill-rule="evenodd"/><path d="M31.559 31.566C7.509 55.615-2.737 88.209.699 119.577c31.368 3.435 63.964-6.81 88.015-30.859 24.049-24.05 34.295-56.644 30.859-88.012-31.368-3.436-63.964 6.81-88.014 30.86z" id="path-2" class="cls-4" fill-rule="evenodd"/><path d="M119.573.706c-5.374-.589-10.782-.745-16.179-.529C105.917.276 108.439.43 110.951.706 114.387 32.074 104.141 64.669 80.092 88.718c-19.93 19.93-45.73 30.347-71.835 31.389C37.235 121.25 66.59 110.841 88.714 88.718 112.763 64.669 123.009 32.074 119.573.706z" id="path-3" class="cls-5" fill-rule="evenodd"/><path d="M126.817 126.82c-24.05 24.049-34.296 56.645-30.86 88.011 31.367 3.435 63.964-6.809 88.014-30.858 24.05-24.05 34.296-56.645 30.86-88.012-31.368-3.435-63.964 6.81-88.014 30.859z" id="path-4" class="cls-4" fill-rule="evenodd"/><path d="M104.578 214.831c-3.435-31.366 6.81-63.962 30.86-88.011 19.93-19.929 45.731-30.348 71.835-31.388C178.295 94.288 148.94 104.697 126.817 126.82c-24.05 24.049-34.296 56.645-30.86 88.011C101.331 215.42 106.74 215.576 112.136 215.361 109.613 215.261 107.091 215.107 104.578 214.831z" id="path-5" class="cls-5" fill-rule="evenodd"/><path d="M183.971 31.564c-9.53-9.529-20.41-16.878-32.015-22.092C155.583 12.274 159.09 15.306 162.417 18.633c42.085 42.082 42.085 110.324.0 152.408-32.554 32.553-80.753 39.901-120.397 22.093C84.286 225.763 145.213 222.729 183.971 183.973c42.085-42.083 42.085-110.324.0-152.409z" id="path-6" class="cls-8" fill-rule="evenodd"/></g></svg>

<svg xmlns="http://www.w3.org/2000/svg" xmlns:xlink="http://www.w3.org/1999/xlink" preserveAspectRatio="xMidYMid" width="216" height="216" viewBox="0 0 216 216">
  <defs>
    <style>

      .cls-3 {
        fill: #ededed;
      }

      .cls-4 {
        fill: #fbb713;
      }

      .cls-5 {
        fill: #000000;
        opacity: 0.35;
      }

      .cls-8 {
        fill: #000000;
        opacity: 0.25;
      }
    </style>
  </defs>
  <g id="group-132svg">
    <path d="M31.559,31.566 C-10.526,73.649 -10.526,141.890 31.559,183.973 C73.644,226.058 141.886,226.058 183.971,183.973 C226.056,141.890 226.056,73.649 183.971,31.566 C141.886,-10.517 73.644,-10.517 31.559,31.566 C31.559,31.566 31.559,31.566 31.559,31.566 Z" id="path-1" class="cls-3" fill-rule="evenodd"/>
    <path d="M31.559,31.566 C7.509,55.615 -2.737,88.209 0.699,119.577 C32.067,123.012 64.663,112.767 88.714,88.718 C112.763,64.668 123.009,32.074 119.573,0.706 C88.205,-2.730 55.609,7.516 31.559,31.566 C31.559,31.566 31.559,31.566 31.559,31.566 Z" id="path-2" class="cls-4" fill-rule="evenodd"/>
    <path d="M119.573,0.706 C114.199,0.117 108.791,-0.039 103.394,0.177 C105.917,0.276 108.439,0.430 110.951,0.706 C114.387,32.074 104.141,64.669 80.092,88.718 C60.162,108.648 34.362,119.065 8.257,120.107 C37.235,121.250 66.590,110.841 88.714,88.718 C112.763,64.669 123.009,32.074 119.573,0.706 Z" id="path-3" class="cls-5" fill-rule="evenodd"/>
    <path d="M126.817,126.820 C102.767,150.869 92.521,183.465 95.957,214.831 C127.324,218.266 159.921,208.022 183.971,183.973 C208.021,159.923 218.267,127.328 214.831,95.961 C183.463,92.526 150.867,102.771 126.817,126.820 C126.817,126.820 126.817,126.820 126.817,126.820 Z" id="path-4" class="cls-4" fill-rule="evenodd"/>
    <path d="M104.578,214.831 C101.143,183.465 111.388,150.869 135.438,126.820 C155.368,106.891 181.169,96.472 207.273,95.432 C178.295,94.288 148.940,104.697 126.817,126.820 C102.767,150.869 92.521,183.465 95.957,214.831 C101.331,215.420 106.740,215.576 112.136,215.361 C109.613,215.261 107.091,215.107 104.578,214.831 Z" id="path-5" class="cls-5" fill-rule="evenodd"/>
    <path d="M183.971,31.564 C174.441,22.035 163.561,14.686 151.956,9.472 C155.583,12.274 159.090,15.306 162.417,18.633 C204.502,60.715 204.502,128.957 162.417,171.041 C129.863,203.594 81.664,210.942 42.020,193.134 C84.286,225.763 145.213,222.729 183.971,183.973 C226.056,141.890 226.056,73.649 183.971,31.564 Z" id="path-6" class="cls-8" fill-rule="evenodd"/>
  </g>
</svg>
